img/icons/location/pin-3.svg

<svg xmlns="http://www.w3.org/2000/svg" viewBox="0 0 32 48"><g data-name="Layer 2"><path data-name="Pin - 3" d="M32 29a7 7 0 00-7-7h-.12L23.13 8H27V5a5 5 0 00-5-5H10a5 5 0 00-5 5v3h3.87L7.12 22H7a7 7 0 00-7 7v3h15v16h2V32h15zM7 6V5a3 3 0 013-3h12a3 3 0 013 3v1H7zm3.88 2h10.24l1.75 14H9.13zM30 30H2v-1a5 5 0 015-5h18a5 5 0 015 5z" fill="#231f20"/></g></svg>

<svg xmlns="http://www.w3.org/2000/svg" viewBox="0 0 32 48"><defs><style>.cls-1{fill:#231f20;}</style></defs><title>Pin - 3</title><g id="Layer_2" data-name="Layer 2"><g id="Icons"><g id="Location"><path id="Pin_-_3" data-name="Pin - 3" class="cls-1" d="M32,29a7,7,0,0,0-7-7h-.12L23.13,8H27V5a5,5,0,0,0-5-5H10A5,5,0,0,0,5,5V8H8.87L7.12,22H7a7,7,0,0,0-7,7v3H15V48h2V32H32ZM7,6V5a3,3,0,0,1,3-3H22a3,3,0,0,1,3,3V6H7Zm3.88,2H21.12l1.75,14H9.13ZM30,30H2V29a5,5,0,0,1,5-5H25a5,5,0,0,1,5,5Z"/></g></g></g></svg>
